X:1
T:He's Nobody's Moggy Now
M:4/4
L:1/4
K:Eb
 B2 =A B| c/2 B/2- B2 G/2G/2| B2 A G| A4| A2 G A| B/2 A/2- A A B| A G G F|\
 G4| A A G A| c c2 A| G B c d| e3 e/2d/2| c c B c| d c c c| f f f e|\
 d4| B B/2 B/2- B B| c B B G/2G/2| B/2 A/2- A A G| A3 G| G G G G| A G G A|\
 G F F E| F3 B,/2B,/2| B B =A B| c B G3/2 E/2| e e d/2 e/2- e| g3 f|\
 e2 B/2 G/2- G| B/2 G/2- G3| G3- E-| E3 B,| B B =A B| c/2 B/2- B z B|\
 B3/2 A/2 A G| A3 A| A A G A| B/2 A/2- A A3/2 B/2| A G A3/2 G/2| G2 z2|\
 A A G A| c/2c/2 c z A| G G B d| e/2 e/2- e2 z| c c/2 c/2- c c| d c c3/2 c/2|\
 f f f e| e/2 d/2- d2 G/2G/2| B B B B| c/2 B/2- B B G/2G/2| B A A G|\
 A3 E/2F/2| G G G G| A G G E/2E/2| G F F E| F2 z| B,/2B,/2| B/2 B/2- B =A B|\
 c B G3/2 E/2| e/2 e/2- e d/2 e/2- e| g3 f| e2 B/2 G/2- G| B/2 F/2- F2 e|\
 e e d e| f/2 f/2- f2| e| e2 B/2 G/2- G| B/2 G/2- G3| G3- E-| E3 z|\
